proprietary/odm/etc/hdr3dlut_pq_qcom_grid_out_rgb.cube
LUT_3D_SIZE 5
0 0 0
0.11437 0 0.00684262
0.373412 0 0.0224829
0.643206 0 0.0381232
1 0 0.113392
0 0.102639 0
0.101662 0.0997067 0
0.371457 0.0449658 0.0156403
0.642229 0 0.0361681
1 0 0.113392
0 0.338221 0
0 0.337243 0
0.336266 0.328446 0
0.623656 0.304985 0
1 0 0.106549
0 0.581623 0
0 0.581623 0
0.218964 0.576735 0
0.577713 0.565005 0
1 0 0.086999
0 1 0
0 1 0
0 1 0
0 1 0
1 1 0
0 0 0.108504
0.111437 0 0.0997067
0.373412 0 0.101662
0.643206 0 0.105572
1 0 0.134897
0 0.101662 0.0987292
0.0987292 0.0987292 0.0987292
0.370479 0.0439883 0.100684
0.642229 0 0.104594
1 0 0.134897
0 0.338221 0.086999
0 0.337243 0.086999
0.335288 0.328446 0.0889541
0.623656 0.304985 0.0928641
1 0 0.128055
0 0.581623 0.0391007
0 0.580645 0.0400782
0.217986 0.576735 0.0439883
0.577713 0.565005 0.0537634
1 0 0.113392
0 1 0
0 1 0
0 1 0
0 1 0
1 1 0
0 0 0.329423
0.0723363 0 0.329423
0.365591 0 0.329423
0.639296 0 0.331378
1 0 0.280547
0 0.0957967 0.328446
0.0498534 0.0928641 0.328446
0.363636 0.0215054 0.329423
0.638319 0 0.331378
1 0 0.27957
0 0.336266 0.326491
0 0.336266 0.326491
0.327468 0.327468 0.327468
0.619746 0.304008 0.327468
1 0 0.274682
0 0.580645 0.319648
0 0.580645 0.319648
0.203324 0.575758 0.320626
0.573803 0.564027 0.321603
1 0 0.26393
0 1 0
0 1 0
0 1 0
0 1 0
1 1 0.0400782
0 0 0.565982
0 0 0.565982
0.347019 0 0.56696
0.630499 0 0.567937
1 0 0.459433
0 0.0782014 0.565982
0 0.0742913 0.565982
0.344086 0 0.56696
0.628543 0 0.567937
1 0 0.458456
0 0.333333 0.565005
0 0.332356 0.565005
0.304985 0.323558 0.565982
0.609971 0.29912 0.565005
1 0 0.453568
0 0.57869 0.562072
0 0.57869 0.562072
0.16129 0.573803 0.562072
0.56305 0.562072 0.56305
1 0 0.44086
0 1 0.264907
0 1 0.264907
0 1 0.26393
0 1 0.262952
1 1 0.239492
0 0 1
0 0 1
0 0 1
0.307918 0 1
1 0 1
0 0 1
0 0 1
0 0 1
0.304985 0 1
1 0 1
0 0.231672 1
0 0.230694 1
0 0.217009 1
0.259042 0.175953 1
1 0 1
0 0.534702 1
0 0.533724 1
0 0.526882 1
0 0.502444 1
1 0 1
0 1 1
0 1 1
0 1 1
0 1 1
0.999022 0.999022 0.999022
