proprietary/odm/etc/hdr3dlut_pq_qcom_grid_out_rgb.cube
LUT_3D_SIZE 9
0 0 0
0.0459433 0 0.00293255
0.11437 0 0.00684262
0.236559 0 0.0136852
0.373412 0 0.0224829
0.492669 0 0.0293255
0.643206 0 0.0381232
0.833822 0 0.0498534
1 0 0.113392
0 0.0391007 0
0.0391007 0.0381232 0
0.112414 0.0244379 0.00391007
0.236559 0 0.0127077
0.373412 0 0.0215054
0.492669 0 0.0293255
0.643206 0 0.0381232
0.833822 0 0.0498534
1 0 0.113392
0 0.102639 0
0 0.101662 0
0.101662 0.0997067 0
0.231672 0.086999 0
0.371457 0.0449658 0.0156403
0.490714 0 0.0254154
0.642229 0 0.0361681
0.832845 0 0.0478983
1 0 0.113392
0 0.214076 0
0 0.214076 0
0 0.213099 0
0.213099 0.208211 0
0.360704 0.197458 0
0.482893 0.181818 0
0.636364 0.14956 0.0195503
0.828935 0.0449658 0.0381232
1 0 0.111437
0 0.338221 0
0 0.338221 0
0 0.337243 0
0.160313 0.334311 0
0.336266 0.328446 0
0.466276 0.320626 0
0.623656 0.304985 0
0.821114 0.276637 0
1 0 0.106549
0 0.445748 0
0 0.445748 0
0 0.44477 0
0 0.442815 0
0.300098 0.438905 0
0.442815 0.43304 0
0.608016 0.422287 0
0.809384 0.404692 0
1 0 0.0997067
0 0.581623 0
0 0.581623 0
0 0.581623 0
0 0.579668 0
0.218964 0.576735 0
0.397849 0.572825 0
0.577713 0.565005 0
0.787879 0.552297 0
1 0 0.086999
0 0.754643 0
0 0.754643 0
0 0.754643 0
0 0.752688 0
0 0.750733 0
0.298143 0.747801 0
0.521017 0.742913 0
0.750733 0.734115 0
1 0.373412 0.0615836
0 1 0
0 1 0
0 1 0
0 1 0
0 1 0
0 1 0
0 1 0
0 1 0
1 1 0
0 0 0.0420332
0.0439883 0 0.0400782
0.11437 0 0.0361681
0.236559 0 0.0381232
0.373412 0 0.0410557
0.492669 0 0.0449658
0.643206 0 0.0508309
0.833822 0 0.0596285
1 0 0.116325
0 0.0391007 0.0381232
0.0371457 0.0371457 0.0371457
0.111437 0.0244379 0.0351906
0.235582 0 0.0371457
0.373412 0 0.0410557
0.492669 0 0.0449658
0.643206 0 0.0508309
0.833822 0 0.0596285
1 0 0.116325
0 0.102639 0.0322581
0 0.101662 0.0322581
0.101662 0.0997067 0.0332356
0.231672 0.086999 0.0351906
0.371457 0.0449658 0.0381232
0.490714 0 0.0430108
0.642229 0 0.0488759
0.832845 0 0.058651
1 0 0.115347
0 0.214076 0.0117302
0 0.214076 0.0117302
0 0.212121 0.0127077
0.212121 0.208211 0.0175953
0.360704 0.197458 0.0244379
0.482893 0.181818 0.0312805
0.636364 0.14956 0.0400782
0.828935 0.0449658 0.0508309
1 0 0.113392
0 0.338221 0
0 0.338221 0
0 0.337243 0
0.160313 0.334311 0
0.336266 0.328446 0
0.466276 0.320626 0
0.623656 0.304985 0
0.821114 0.276637 0.028348
1 0 0.108504
0 0.445748 0
0 0.445748 0
0 0.44477 0
0 0.442815 0
0.29912 0.438905 0
0.442815 0.43304 0
0.608016 0.422287 0
0.809384 0.404692 0
1 0 0.102639
0 0.581623 0
0 0.581623 0
0 0.581623 0
0 0.579668 0
0.218964 0.576735 0
0.397849 0.572825 0
0.577713 0.565005 0
0.787879 0.552297 0
1 0 0.0909091
0 0.754643 0
0 0.754643 0
0 0.754643 0
0 0.752688 0
0 0.750733 0
0.298143 0.747801 0
0.521017 0.742913 0
0.750733 0.734115 0
1 0.373412 0.0664712
0 1 0
0 1 0
0 1 0
0 1 0
0 1 0
0 1 0
0 1 0
0 1 0
1 1 0
0 0 0.108504
0.0332356 0 0.106549
0.111437 0 0.0997067
0.235582 0 0.100684
0.373412 0 0.101662
0.492669 0 0.102639
0.643206 0 0.105572
0.833822 0 0.109482
1 0 0.134897
0 0.0371457 0.104594
0.026393 0.0351906 0.103617
0.109482 0.0215054 0.0997067
0.234604 0 0.100684
0.372434 0 0.101662
0.492669 0 0.102639
0.643206 0 0.105572
0.833822 0 0.109482
1 0 0.134897
0 0.101662 0.0987292
0 0.101662 0.0987292
0.0987292 0.0987292 0.0987292
0.230694 0.0860215 0.0997067
0.370479 0.0439883 0.100684
0.490714 0 0.102639
0.642229 0 0.104594
0.832845 0 0.108504
1 0 0.134897
0 0.213099 0.0948192
0 0.213099 0.0948192
0 0.212121 0.0957967
0.211144 0.208211 0.0957967
0.359726 0.196481 0.0967742
0.482893 0.180841 0.0987292
0.636364 0.14956 0.101662
0.828935 0.0439883 0.105572
1 0 0.132942
0 0.338221 0.086999
0 0.338221 0.086999
0 0.337243 0.086999
0.159335 0.334311 0.0879765
0.335288 0.328446 0.0889541
0.466276 0.320626 0.0909091
0.623656 0.304985 0.0928641
0.820137 0.276637 0.0977517
1 0 0.128055
0 0.445748 0.0742913
0 0.445748 0.0742913
0 0.44477 0.0742913
0 0.442815 0.0742913
0.29912 0.438905 0.0762463
0.441838 0.43304 0.0782014
0.607038 0.422287 0.0811339
0.809384 0.404692 0.086999
1 0 0.123167
0 0.581623 0.0391007
0 0.581623 0.0391007
0 0.580645 0.0400782
0 0.579668 0.0410557
0.217986 0.576735 0.0439883
0.396872 0.572825 0.0478983
0.577713 0.565005 0.0537634
0.787879 0.552297 0.0615836
1 0 0.113392
0 0.754643 0
0 0.754643 0
0 0.753666 0
0 0.752688 0
0 0.750733 0
0.298143 0.747801 0
0.520039 0.742913 0
0.749756 0.734115 0
1 0.373412 0.0948192
0 1 0
0 1 0
0 1 0
0 1 0
0 1 0
0 1 0
0 1 0
0 1 0
1 1 0
0 0 0.209189
0 0 0.208211
0.100684 0 0.208211
0.231672 0 0.208211
0.370479 0 0.209189
0.490714 0 0.210166
0.642229 0 0.211144
0.832845 0 0.213099
1 0 0.195503
0 0.0273705 0.207234
0 0.0254154 0.207234
0.0987292 0 0.208211
0.230694 0 0.208211
0.370479 0 0.209189
0.490714 0 0.210166
0.642229 0 0.211144
0.832845 0 0.212121
1 0 0.195503
0 0.100684 0.208211
0 0.0997067 0.208211
0.086999 0.0967742 0.208211
0.226784 0.0840665 0.208211
0.368524 0.0391007 0.209189
0.488759 0 0.209189
0.641251 0 0.211144
0.831867 0 0.212121
1 0 0.195503
0 0.213099 0.206256
0 0.213099 0.206256
0 0.212121 0.206256
0.207234 0.207234 0.207234
0.357771 0.195503 0.207234
0.480938 0.179863 0.208211
0.635386 0.147605 0.209189
0.827957 0.0391007 0.211144
1 0 0.193548
0 0.337243 0.203324
0 0.337243 0.203324
0 0.336266 0.203324
0.152493 0.334311 0.203324
0.333333 0.328446 0.204301
0.464321 0.319648 0.205279
0.622678 0.304985 0.206256
0.820137 0.276637 0.208211
1 0 0.190616
0 0.44477 0.199413
0 0.44477 0.199413
0 0.44477 0.199413
0 0.442815 0.199413
0.296188 0.437928 0.199413
0.439883 0.432063 0.200391
0.606061 0.422287 0.201369
0.808407 0.403715 0.203324
1 0 0.185728
0 0.581623 0.191593
0 0.581623 0.191593
0 0.580645 0.191593
0 0.579668 0.191593
0.214076 0.576735 0.192571
0.394917 0.572825 0.192571
0.576735 0.565005 0.193548
0.786901 0.552297 0.195503
1 0 0.178886
0 0.754643 0.176931
0 0.754643 0.176931
0 0.753666 0.176931
0 0.752688 0.176931
0 0.750733 0.176931
0.29521 0.747801 0.177908
0.519062 0.742913 0.179863
0.748778 0.733138 0.181818
1 0.373412 0.166178
0 1 0
0 1 0
0 1 0
0 1 0
0 1 0
0 1 0
0 1 0
0 1 0
1 1 0
0 0 0.329423
0 0 0.329423
0.0723363 0 0.329423
0.221896 0 0.328446
0.365591 0 0.329423
0.486804 0 0.330401
0.639296 0 0.331378
0.83089 0 0.331378
1 0 0.280547
0 0 0.329423
0 0 0.329423
0.0703812 0 0.329423
0.221896 0 0.328446
0.365591 0 0.329423
0.486804 0 0.330401
0.639296 0 0.331378
0.83089 0 0.331378
1 0 0.280547
0 0.0957967 0.328446
0 0.0957967 0.328446
0.0498534 0.0928641 0.328446
0.217986 0.0782014 0.328446
0.363636 0.0215054 0.329423
0.484848 0 0.330401
0.638319 0 0.331378
0.829912 0 0.331378
1 0 0.27957
0 0.211144 0.328446
0 0.211144 0.328446
0 0.210166 0.328446
0.196481 0.205279 0.328446
0.351906 0.194526 0.328446
0.478006 0.177908 0.329423
0.632454 0.14565 0.330401
0.826002 0.0224829 0.330401
1 0 0.278592
0 0.336266 0.326491
0 0.336266 0.326491
0 0.336266 0.326491
0.136852 0.333333 0.326491
0.327468 0.327468 0.327468
0.460411 0.318671 0.327468
0.619746 0.304008 0.327468
0.818182 0.27566 0.329423
1 0 0.274682
0 0.44477 0.324536
0 0.44477 0.324536
0 0.443793 0.324536
0 0.441838 0.324536
0.289345 0.43695 0.324536
0.435973 0.431085 0.324536
0.603128 0.42131 0.325513
0.806452 0.402737 0.326491
1 0 0.270772
0 0.580645 0.319648
0 0.580645 0.319648
0 0.580645 0.319648
0 0.57869 0.320626
0.203324 0.575758 0.320626
0.390029 0.571848 0.320626
0.573803 0.564027 0.321603
0.784946 0.55132 0.322581
1 0 0.26393
0 0.753666 0.311828
0 0.753666 0.311828
0 0.753666 0.311828
0 0.752688 0.311828
0 0.749756 0.312805
0.288368 0.746823 0.312805
0.515152 0.741935 0.313783
0.746823 0.733138 0.314761
1 0.372434 0.253177
0 1 0
0 1 0
0 1 0
0 1 0
0 1 0
0 1 0
0 1 0
0 1 0
1 1 0.0400782
0 0 0.434018
0 0 0.434018
0 0 0.43304
0.210166 0 0.434018
0.359726 0 0.434018
0.482893 0 0.434995
0.636364 0 0.435973
0.828935 0 0.435973
1 0 0.357771
0 0 0.43304
0 0 0.43304
0 0 0.43304
0.209189 0 0.434018
0.358749 0 0.434018
0.481916 0 0.434995
0.636364 0 0.435973
0.827957 0 0.435973
1 0 0.357771
0 0.0899316 0.43304
0 0.0899316 0.43304
0 0.086999 0.43304
0.205279 0.0713587 0.434018
0.356794 0 0.434018
0.480938 0 0.434018
0.635386 0 0.434995
0.826979 0 0.435973
1 0 0.357771
0 0.209189 0.43304
0 0.209189 0.43304
0 0.208211 0.43304
0.181818 0.203324 0.43304
0.345064 0.191593 0.434018
0.473118 0.175953 0.434018
0.628543 0.14174 0.434995
0.823069 0 0.434995
1 0 0.355816
0 0.335288 0.432063
0 0.335288 0.432063
0 0.334311 0.432063
0.113392 0.332356 0.432063
0.319648 0.325513 0.43304
0.455523 0.317693 0.43304
0.615836 0.302053 0.43304
0.815249 0.273705 0.434018
1 0 0.352884
0 0.443793 0.430108
0 0.443793 0.430108
0 0.442815 0.430108
0 0.44086 0.430108
0.280547 0.43695 0.430108
0.431085 0.430108 0.430108
0.600196 0.420332 0.431085
0.803519 0.40176 0.432063
1 0 0.348974
0 0.580645 0.427175
0 0.579668 0.427175
0 0.579668 0.427175
0 0.57869 0.428152
0.189638 0.575758 0.428152
0.384164 0.57087 0.428152
0.569892 0.564027 0.428152
0.782014 0.550342 0.42913
1 0 0.341153
0 0.753666 0.422287
0 0.753666 0.422287
0 0.752688 0.422287
0 0.751711 0.422287
0 0.749756 0.422287
0.278592 0.746823 0.422287
0.511241 0.741935 0.423265
0.743891 0.733138 0.424242
1 0.371457 0.329423
0 1 0.160313
0 1 0.160313
0 1 0.160313
0 1 0.160313
0 1 0.159335
0 1 0.159335
0 1 0.159335
0 1 0.159335
1 1 0.15347
0 0 0.565982
0 0 0.565982
0 0 0.565982
0.185728 0 0.565982
0.347019 0 0.56696
0.474096 0 0.56696
0.630499 0 0.567937
0.824047 0 0.567937
1 0 0.459433
0 0 0.565982
0 0 0.565982
0 0 0.565982
0.185728 0 0.565982
0.347019 0 0.56696
0.474096 0 0.56696
0.629521 0 0.567937
0.824047 0 0.567937
1 0 0.459433
0 0.0782014 0.565982
0 0.0782014 0.565982
0 0.0742913 0.565982
0.179863 0.054741 0.565982
0.344086 0 0.56696
0.472141 0 0.56696
0.628543 0 0.567937
0.823069 0 0.56696
1 0 0.458456
0 0.205279 0.565982
0 0.205279 0.565982
0 0.204301 0.565982
0.152493 0.198436 0.565982
0.332356 0.187683 0.565982
0.464321 0.171065 0.56696
0.622678 0.135875 0.56696
0.819159 0 0.56696
1 0 0.457478
0 0.333333 0.565005
0 0.333333 0.565005
0 0.332356 0.565005
0.0361681 0.329423 0.565982
0.304985 0.323558 0.565982
0.445748 0.314761 0.565005
0.609971 0.29912 0.565005
0.811339 0.270772 0.56696
1 0 0.453568
0 0.441838 0.564027
0 0.441838 0.564027
0 0.44086 0.564027
0 0.438905 0.564027
0.26393 0.434995 0.564027
0.42131 0.42913 0.564027
0.593353 0.419355 0.565005
0.799609 0.399804 0.565005
1 0 0.44868
0 0.57869 0.562072
0 0.57869 0.562072
0 0.57869 0.562072
0 0.577713 0.562072
0.16129 0.573803 0.562072
0.373412 0.569892 0.562072
0.56305 0.562072 0.56305
0.777126 0.549365 0.56305
1 0 0.44086
0 0.752688 0.558162
0 0.752688 0.558162
0 0.752688 0.558162
0 0.750733 0.558162
0 0.748778 0.558162
0.261975 0.745846 0.558162
0.503421 0.740958 0.55914
0.739003 0.73216 0.560117
1 0.369501 0.427175
0 1 0.264907
0 1 0.264907
0 1 0.264907
0 1 0.26393
0 1 0.26393
0 1 0.26393
0 1 0.262952
0 1 0.260997
1 1 0.239492
0 0 0.735093
0 0 0.735093
0 0 0.735093
0.130987 0 0.735093
0.324536 0 0.735093
0.459433 0 0.735093
0.618768 0 0.73607
0.816227 0 0.735093
1 0 0.588465
0 0 0.735093
0 0 0.735093
0 0 0.735093
0.13001 0 0.735093
0.324536 0 0.735093
0.458456 0 0.735093
0.618768 0 0.73607
0.816227 0 0.735093
1 0 0.588465
0 0.0518084 0.735093
0 0.0508309 0.735093
0 0.0439883 0.735093
0.121212 0 0.735093
0.321603 0 0.735093
0.457478 0 0.73607
0.617791 0 0.73607
0.815249 0 0.735093
1 0 0.588465
0 0.198436 0.734115
0 0.198436 0.734115
0 0.196481 0.734115
0.0664712 0.191593 0.734115
0.308895 0.179863 0.735093
0.44868 0.162268 0.735093
0.611926 0.123167 0.735093
0.811339 0 0.73607
1 0 0.58651
0 0.329423 0.735093
0 0.329423 0.735093
0 0.328446 0.735093
0 0.325513 0.734115
0.278592 0.319648 0.734115
0.430108 0.31085 0.734115
0.59824 0.29521 0.734115
0.803519 0.265885 0.735093
1 0 0.581623
0 0.438905 0.733138
0 0.438905 0.733138
0 0.438905 0.733138
0 0.435973 0.733138
0.231672 0.432063 0.733138
0.403715 0.426197 0.733138
0.5826 0.416422 0.734115
0.790811 0.396872 0.734115
1 0 0.576735
0 0.576735 0.73216
0 0.576735 0.73216
0 0.576735 0.73216
0 0.575758 0.73216
0.0879765 0.571848 0.73216
0.351906 0.567937 0.73216
0.550342 0.560117 0.73216
0.769306 0.54741 0.73216
1 0 0.56696
0 0.750733 0.729228
0 0.750733 0.729228
0 0.750733 0.729228
0 0.749756 0.729228
0 0.747801 0.729228
0.229717 0.744868 0.729228
0.488759 0.73998 0.730205
0.730205 0.730205 0.730205
1 0.366569 0.55132
0 1 0.375367
0 1 0.375367
0 1 0.375367
0 1 0.375367
0 1 0.374389
0 1 0.373412
0 1 0.372434
0 1 0.370479
1 1 0.334311
0 0 1
0 0 1
0 0 1
0 0 1
0 0 1
0 0 1
0.307918 0 1
0.635386 0 1
1 0 1
0 0 1
0 0 1
0 0 1
0 0 1
0 0 1
0 0 1
0.307918 0 1
0.635386 0 1
1 0 1
0 0 1
0 0 1
0 0 1
0 0 1
0 0 1
0 0 1
0.304985 0 1
0.633431 0 1
1 0 1
0 0 1
0 0 1
0 0 1
0 0 1
0 0 1
0 0 1
0.2913 0 1
0.628543 0 1
1 0 1
0 0.231672 1
0 0.231672 1
0 0.230694 1
0 0.226784 1
0 0.217009 1
0 0.203324 1
0.259042 0.175953 1
0.615836 0.108504 1
1 0 1
0 0.377322 1
0 0.377322 1
0 0.376344 1
0 0.374389 1
0 0.368524 1
0 0.361681 1
0.206256 0.348974 1
0.59042 0.320626 1
1 0 1
0 0.534702 1
0 0.534702 1
0 0.533724 1
0 0.532747 1
0 0.526882 1
0 0.518084 1
0 0.502444 1
0.540567 0.477028 1
1 0 1
0 0.681329 1
0 0.681329 1
0 0.680352 1
0 0.677419 1
0 0.671554 1
0 0.664712 1
0 0.652004 1
0.460411 0.630499 1
1 0.308895 1
0 1 1
0 1 1
0 1 1
0 1 1
0 1 1
0 1 1
0 1 1
0 1 1
0.999022 0.999022 0.999022
