proprietary/odm/etc/hdr3dlut_pq_qcom_grid_out_rgb.cube
LUT_3D_SIZE 17
0 0 0
0.0215054 0 0.00195503
0.0459433 0 0.00293255
0.0752688 0 0.00391007
0.11437 0 0.00684262
0.156403 0 0.00879765
0.236559 0 0.0136852
0.323558 0 0.0195503
0.373412 0 0.0224829
0.430108 0 0.0254154
0.492669 0 0.0293255
0.56305 0 0.0342131
0.643206 0 0.0381232
0.733138 0 0.0439883
0.833822 0 0.0498534
1 0 0.0860215
1 0 0.113392
0 0.0185728 0
0.0185728 0.0185728 0
0.0439883 0.0146628 0.000977517
0.0742913 0 0.00391007
0.11437 0 0.0058651
0.155425 0 0.00879765
0.236559 0 0.0136852
0.323558 0 0.0195503
0.373412 0 0.0224829
0.430108 0 0.0254154
0.492669 0 0.0293255
0.56305 0 0.0332356
0.643206 0 0.0381232
0.733138 0 0.0439883
0.833822 0 0.0498534
1 0 0.0860215
1 0 0.113392
0 0.0391007 0
0 0.0391007 0
0.0391007 0.0381232 0
0.0703812 0.0342131 0
0.112414 0.0244379 0.00391007
0.155425 0 0.00782014
0.236559 0 0.0127077
0.323558 0 0.0185728
0.373412 0 0.0215054
0.430108 0 0.0254154
0.492669 0 0.0293255
0.56305 0 0.0332356
0.643206 0 0.0381232
0.733138 0 0.0439883
0.833822 0 0.0498534
1 0 0.0860215
1 0 0.113392
0 0.0645161 0
0 0.0645161 0
0.0234604 0.0635386 0
0.0625611 0.0615836 0
0.109482 0.0576735 0
0.15347 0.0518084 0
0.234604 0.0254154 0.00977517
0.322581 0 0.0166178
0.372434 0 0.0205279
0.42913 0 0.0244379
0.491691 0 0.028348
0.56305 0 0.0322581
0.643206 0 0.0371457
0.73216 0 0.0430108
0.833822 0 0.0498534
1 0 0.0860215
1 0 0.113392
0 0.102639 0
0 0.102639 0
0 0.101662 0
0.0459433 0.101662 0
0.101662 0.0997067 0
0.148583 0.0967742 0
0.231672 0.086999 0
0.320626 0.0664712 0.0107527
0.371457 0.0449658 0.0156403
0.428152 0 0.0205279
0.490714 0 0.0254154
0.562072 0 0.030303
0.642229 0 0.0361681
0.73216 0 0.0420332
0.832845 0 0.0478983
1 0 0.085044
1 0 0.113392
0 0.140762 0
0 0.140762 0
0 0.140762 0
0 0.140762 0
0.0879765 0.138807 0
0.139785 0.136852 0
0.226784 0.130987 0
0.317693 0.120235 0
0.368524 0.111437 0
0.42522 0.0977517 0.0136852
0.488759 0.0742913 0.0205279
0.560117 0 0.026393
0.641251 0 0.0322581
0.730205 0 0.0391007
0.831867 0 0.0459433
1 0 0.0840665
1 0 0.112414
0 0.214076 0
0 0.214076 0
0 0.214076 0
0 0.213099 0
0 0.213099 0
0.111437 0.211144 0
0.213099 0.208211 0
0.307918 0.201369 0
0.360704 0.197458 0
0.418377 0.190616 0
0.482893 0.181818 0
0.556207 0.16911 0
0.636364 0.14956 0.0195503
0.726295 0.11828 0.0293255
0.828935 0.0449658 0.0381232
1 0 0.0811339
1 0 0.111437
0 0.293255 0
0 0.293255 0
0 0.293255 0
0 0.292278 0
0 0.292278 0
0 0.2913 0
0.184751 0.288368 0
0.2913 0.284457 0
0.347019 0.281525 0
0.407625 0.277615 0
0.474096 0.27175 0
0.54741 0.26393 0
0.629521 0.253177 0
0.72043 0.238514 0
0.824047 0.217009 0.0195503
1 0 0.0752688
1 0 0.108504
0 0.338221 0
0 0.338221 0
0 0.338221 0
0 0.337243 0
0 0.337243 0
0 0.336266 0
0.160313 0.334311 0
0.277615 0.331378 0
0.336266 0.328446 0
0.398827 0.325513 0
0.466276 0.320626 0
0.541544 0.313783 0
0.623656 0.304985 0
0.715543 0.293255 0
0.821114 0.276637 0
1 0 0.0703812
1 0 0.106549
0 0.389052 0
0 0.389052 0
0 0.389052 0
0 0.389052 0
0 0.388074 0
0 0.388074 0
0.119257 0.386119 0
0.259042 0.383187 0
0.321603 0.381232 0
0.386119 0.377322 0
0.4565 0.373412 0
0.532747 0.368524 0
0.616813 0.361681 0
0.710655 0.351906 0
0.816227 0.339198 0
1 0.160313 0.0635386
1 0 0.103617
0 0.445748 0
0 0.445748 0
0 0.445748 0
0 0.445748 0
0 0.44477 0
0 0.44477 0
0 0.442815 0
0.230694 0.44086 0
0.300098 0.438905 0
0.369501 0.435973 0
0.442815 0.43304 0
0.521017 0.428152 0
0.608016 0.422287 0
0.702835 0.415445 0
0.809384 0.404692 0
1 0.277615 0.0518084
1 0 0.0997067
0 0.509286 0
0 0.509286 0
0 0.509286 0
0 0.509286 0
0 0.508309 0
0 0.508309 0
0 0.507331 0
0.184751 0.504399 0
0.268817 0.503421 0
0.346041 0.501466 0
0.424242 0.498534 0
0.506354 0.495601 0
0.595308 0.490714 0
0.692082 0.483871 0
0.800587 0.475073 0
1 0.368524 0.030303
1 0 0.0948192
0 0.581623 0
0 0.581623 0
0 0.581623 0
0 0.581623 0
0 0.581623 0
0 0.580645 0
0 0.579668 0
0.085044 0.577713 0
0.218964 0.576735 0
0.311828 0.57478 0
0.397849 0.572825 0
0.485826 0.569892 0
0.577713 0.565005 0
0.678397 0.560117 0
0.787879 0.552297 0
1 0.45259 0
1 0 0.086999
0 0.662757 0
0 0.662757 0
0 0.662757 0
0 0.662757 0
0 0.662757 0
0 0.661779 0
0 0.660802 0
0 0.659824 0
0.11828 0.658847 0
0.257087 0.656891 0
0.358749 0.654936 0
0.455523 0.652004 0
0.554252 0.648094 0
0.658847 0.644184 0
0.772239 0.637341 0
1 0.533724 0
1 0.243402 0.0772239
0 0.754643 0
0 0.754643 0
0 0.754643 0
0 0.754643 0
0 0.754643 0
0 0.753666 0
0 0.752688 0
0 0.751711 0
0 0.750733 0
0.14956 0.749756 0
0.298143 0.747801 0
0.412512 0.745846 0
0.521017 0.742913 0
0.631476 0.739003 0
0.750733 0.734115 0
1 0.614858 0
1 0.373412 0.0615836
0 1 0
0 1 0
0 1 0
0 1 0
0 1 0
0 1 0
0 1 0
0 1 0
0 1 0
0 1 0
0 1 0
0 1 0
0 1 0
0.190616 1 0
0.393939 1 0
0.982405 0.960899 0
1 0.761486 0
0 1 0
0 1 0
0 1 0
0 1 0
0 1 0
0 1 0
0 1 0
0 1 0
0 1 0
0 1 0
0 1 0
0 1 0
0 1 0
0 1 0
0 1 0
0.487781 1 0
1 1 0
0 0 0.0185728
0.0205279 0 0.0185728
0.0449658 0 0.0175953
0.0752688 0 0.0175953
0.11437 0 0.0175953
0.156403 0 0.0175953
0.236559 0 0.0205279
0.323558 0 0.0244379
0.373412 0 0.026393
0.430108 0 0.0293255
0.492669 0 0.0332356
0.56305 0 0.0371457
0.643206 0 0.0410557
0.733138 0 0.0459433
0.833822 0 0.0518084
1 0 0.0879765
1 0 0.11437
0 0.0185728 0.0185728
0.0175953 0.0175953 0.0175953
0.0439883 0.0146628 0.0175953
0.0742913 0 0.0175953
0.11437 0 0.0166178
0.155425 0 0.0175953
0.236559 0 0.0205279
0.323558 0 0.0244379
0.373412 0 0.026393
0.430108 0 0.0293255
0.492669 0 0.0332356
0.56305 0 0.0361681
0.643206 0 0.0410557
0.733138 0 0.0459433
0.833822 0 0.0518084
1 0 0.086999
1 0 0.11437
0 0.0391007 0.0166178
0 0.0391007 0.0166178
0.0381232 0.0381232 0.0166178
0.0703812 0.0342131 0.0156403
0.112414 0.0244379 0.0166178
0.155425 0 0.0175953
0.236559 0 0.0205279
0.323558 0 0.0234604
0.373412 0 0.026393
0.430108 0 0.0293255
0.492669 0 0.0322581
0.56305 0 0.0361681
0.643206 0 0.0410557
0.733138 0 0.0459433
0.833822 0 0.0518084
1 0 0.086999
1 0 0.11437
0 0.0645161 0.0127077
0 0.0645161 0.0127077
0.0234604 0.0635386 0.0127077
0.0625611 0.0615836 0.0136852
0.109482 0.0576735 0.0146628
0.15347 0.0518084 0.0156403
0.234604 0.0254154 0.0185728
0.322581 0 0.0224829
0.372434 0 0.0254154
0.42913 0 0.028348
0.491691 0 0.0312805
0.56305 0 0.0351906
0.643206 0 0.0400782
0.73216 0 0.0449658
0.833822 0 0.0518084
1 0 0.086999
1 0 0.11437
0 0.102639 0
0 0.102639 0
0 0.101662 0
0.0459433 0.101662 0.00195503
0.101662 0.0997067 0.0058651
0.148583 0.0967742 0.00879765
0.231672 0.086999 0.0136852
0.320626 0.0664712 0.0185728
0.371457 0.0449658 0.0224829
0.428152 0 0.0254154
0.490714 0 0.0293255
0.562072 0 0.0332356
0.642229 0 0.0381232
0.73216 0 0.0439883
0.832845 0 0.0498534
1 0 0.0860215
1 0 0.113392
0 0.140762 0
0 0.140762 0
0 0.140762 0
0 0.140762 0
0.0879765 0.138807 0
0.139785 0.136852 0
0.226784 0.130987 0
0.317693 0.120235 0.0107527
0.368524 0.111437 0.0156403
0.42522 0.0977517 0.0205279
0.488759 0.0742913 0.0254154
0.560117 0 0.030303
0.641251 0 0.0351906
0.730205 0 0.0410557
0.831867 0 0.0478983
1 0 0.085044
1 0 0.113392
0 0.214076 0
0 0.214076 0
0 0.214076 0
0 0.213099 0
0 0.213099 0
0.111437 0.211144 0
0.213099 0.208211 0
0.307918 0.201369 0
0.360704 0.197458 0
0.418377 0.190616 0
0.482893 0.181818 0
0.556207 0.16911 0.0146628
0.636364 0.14956 0.0244379
0.726295 0.11828 0.0332356
0.828935 0.0449658 0.0410557
1 0 0.0821114
1 0 0.111437
0 0.293255 0
0 0.293255 0
0 0.293255 0
0 0.292278 0
0 0.292278 0
0 0.2913 0
0.184751 0.288368 0
0.2913 0.284457 0
0.347019 0.281525 0
0.407625 0.277615 0
0.474096 0.27175 0
0.54741 0.26393 0
0.629521 0.253177 0
0.72043 0.238514 0
0.824047 0.217009 0.0244379
1 0 0.0762463
1 0 0.108504
0 0.338221 0
0 0.338221 0
0 0.338221 0
0 0.337243 0
0 0.337243 0
0 0.336266 0
0.160313 0.334311 0
0.277615 0.331378 0
0.336266 0.328446 0
0.398827 0.325513 0
0.466276 0.320626 0
0.541544 0.313783 0
0.623656 0.304985 0
0.715543 0.293255 0
0.821114 0.276637 0
1 0 0.0713587
1 0 0.106549
0 0.389052 0
0 0.389052 0
0 0.389052 0
0 0.389052 0
0 0.388074 0
0 0.388074 0
0.119257 0.386119 0
0.259042 0.383187 0
0.320626 0.381232 0
0.386119 0.377322 0
0.4565 0.373412 0
0.532747 0.368524 0
0.616813 0.361681 0
0.710655 0.351906 0
0.816227 0.339198 0
1 0.160313 0.0645161
1 0 0.103617
0 0.445748 0
0 0.445748 0
0 0.445748 0
0 0.445748 0
0 0.44477 0
0 0.44477 0
0 0.442815 0
0.230694 0.44086 0
0.300098 0.438905 0
0.369501 0.435973 0
0.442815 0.43304 0
0.521017 0.428152 0
0.608016 0.422287 0
0.702835 0.415445 0
0.809384 0.404692 0
1 0.277615 0.0527859
1 0 0.0997067
0 0.509286 0
0 0.509286 0
0 0.509286 0
0 0.509286 0
0 0.508309 0
0 0.508309 0
0 0.507331 0
0.184751 0.504399 0
0.268817 0.503421 0
0.346041 0.501466 0
0.424242 0.498534 0
0.506354 0.495601 0
0.595308 0.490714 0
0.692082 0.483871 0
0.800587 0.475073 0
1 0.368524 0.0332356
1 0 0.0948192
0 0.581623 0
0 0.581623 0
0 0.581623 0
0 0.581623 0
0 0.581623 0
0 0.580645 0
0 0.579668 0
0.085044 0.577713 0
0.218964 0.576735 0
0.311828 0.57478 0
0.397849 0.572825 0
0.485826 0.569892 0
0.577713 0.565005 0
0.678397 0.560117 0
0.787879 0.552297 0
1 0.45259 0
1 0 0.0879765
0 0.662757 0
0 0.662757 0
0 0.662757 0
0 0.662757 0
0 0.662757 0
0 0.661779 0
0 0.660802 0
0 0.659824 0
0.11828 0.657869 0
0.257087 0.656891 0
0.358749 0.654936 0
0.455523 0.652004 0
0.554252 0.648094 0
0.658847 0.644184 0
0.772239 0.637341 0
1 0.533724 0
1 0.243402 0.0782014
0 0.754643 0
0 0.754643 0
0 0.754643 0
0 0.754643 0
0 0.754643 0
0 0.753666 0
0 0.752688 0
0 0.751711 0
0 0.750733 0
0.14956 0.749756 0
0.298143 0.747801 0
0.412512 0.745846 0
0.521017 0.742913 0
0.631476 0.739003 0
0.750733 0.734115 0
1 0.614858 0
1 0.373412 0.0625611
0 1 0
0 1 0
0 1 0
0 1 0
0 1 0
0 1 0
0 1 0
0 1 0
0 1 0
0 1 0
0 1 0
0 1 0
0 1 0
0.190616 1 0
0.393939 1 0
0.982405 0.960899 0
1 0.761486 0
0 1 0
0 1 0
0 1 0
0 1 0
0 1 0
0 1 0
0 1 0
0 1 0
0 1 0
0 1 0
0 1 0
0 1 0
0 1 0
0 1 0
0 1 0
0.487781 1 0
1 1 0
0 0 0.0420332
0.0185728 0 0.0410557
0.0439883 0 0.0400782
0.0742913 0 0.0381232
0.11437 0 0.0361681
0.155425 0 0.0361681
0.236559 0 0.0381232
0.323558 0 0.0400782
0.373412 0 0.0410557
0.430108 0 0.0430108
0.492669 0 0.0449658
0.56305 0 0.0478983
0.643206 0 0.0508309
0.733138 0 0.054741
0.833822 0 0.0596285
1 0 0.0918866
1 0 0.116325
0 0.0185728 0.0400782
0.0156403 0.0175953 0.0400782
0.0430108 0.0146628 0.0391007
0.0733138 0 0.0381232
0.113392 0 0.0361681
0.155425 0 0.0361681
0.236559 0 0.0381232
0.323558 0 0.0400782
0.373412 0 0.0410557
0.430108 0 0.0430108
0.492669 0 0.0449658
0.56305 0 0.0478983
0.643206 0 0.0508309
0.733138 0 0.054741
0.833822 0 0.0596285
1 0 0.0918866
1 0 0.116325
0 0.0391007 0.0381232
0 0.0391007 0.0381232
0.0371457 0.0371457 0.0371457
0.0703812 0.0342131 0.0371457
0.111437 0.0244379 0.0351906
0.155425 0 0.0361681
0.235582 0 0.0371457
0.323558 0 0.0391007
0.373412 0 0.0410557
0.430108 0 0.0430108
0.492669 0 0.0449658
0.56305 0 0.0478983
0.643206 0 0.0508309
0.733138 0 0.054741
0.833822 0 0.0596285
1 0 0.0918866
1 0 0.116325
0 0.0645161 0.0351906
0 0.0645161 0.0351906
0.0215054 0.0635386 0.0351906
0.0625611 0.0615836 0.0342131
0.108504 0.0576735 0.0351906
0.15347 0.0518084 0.0351906
0.234604 0.0244379 0.0371457
0.322581 0 0.0391007
0.372434 0 0.0400782
0.42913 0 0.0420332
0.491691 0 0.0439883
0.56305 0 0.0469208
0.643206 0 0.0508309
0.73216 0 0.054741
0.833822 0 0.0596285
1 0 0.0918866
1 0 0.116325
0 0.102639 0.0322581
0 0.102639 0.0322581
0 0.101662 0.0322581
0.0459433 0.101662 0.0322581
0.101662 0.0997067 0.0332356
0.148583 0.0967742 0.0332356
0.231672 0.086999 0.0351906
0.320626 0.0664712 0.0371457
0.371457 0.0449658 0.0381232
0.428152 0 0.0400782
0.490714 0 0.0430108
0.562072 0 0.0459433
0.642229 0 0.0488759
0.73216 0 0.0537634
0.832845 0 0.058651
1 0 0.0909091
1 0 0.115347
0 0.140762 0.028348
0 0.140762 0.0293255
0 0.140762 0.0293255
0 0.140762 0.0293255
0.0879765 0.138807 0.0293255
0.139785 0.136852 0.030303
0.226784 0.130987 0.0312805
0.317693 0.120235 0.0342131
0.368524 0.111437 0.0351906
0.42522 0.0967742 0.0371457
0.488759 0.0742913 0.0400782
0.560117 0 0.0430108
0.641251 0 0.0469208
0.730205 0 0.0518084
0.831867 0 0.056696
1 0 0.0899316
1 0 0.115347
0 0.214076 0.0117302
0 0.214076 0.0117302
0 0.214076 0.0117302
0 0.213099 0.0117302
0 0.212121 0.0127077
0.111437 0.211144 0.0146628
0.212121 0.208211 0.0175953
0.307918 0.201369 0.0215054
0.360704 0.197458 0.0244379
0.418377 0.190616 0.0273705
0.482893 0.181818 0.0312805
0.556207 0.168133 0.0351906
0.636364 0.14956 0.0400782
0.726295 0.11828 0.0449658
0.828935 0.0449658 0.0508309
1 0 0.086999
1 0 0.113392
0 0.293255 0
0 0.293255 0
0 0.293255 0
0 0.292278 0
0 0.292278 0
0 0.2913 0
0.184751 0.288368 0
0.2913 0.284457 0
0.347019 0.281525 0
0.407625 0.277615 0
0.474096 0.27175 0
0.54741 0.26393 0.00977517
0.629521 0.253177 0.0224829
0.72043 0.238514 0.0312805
0.824047 0.217009 0.0400782
1 0 0.0811339
1 0 0.110459
0 0.338221 0
0 0.338221 0
0 0.338221 0
0 0.337243 0
0 0.337243 0
0 0.336266 0
0.160313 0.334311 0
0.277615 0.331378 0
0.336266 0.328446 0
0.398827 0.325513 0
0.466276 0.320626 0
0.541544 0.313783 0
0.623656 0.304985 0
0.715543 0.293255 0.0107527
0.821114 0.276637 0.028348
1 0 0.0772239
1 0 0.108504
0 0.389052 0
0 0.389052 0
0 0.389052 0
0 0.389052 0
0 0.388074 0
0 0.388074 0
0.119257 0.386119 0
0.259042 0.383187 0
0.320626 0.381232 0
0.386119 0.377322 0
0.4565 0.373412 0
0.532747 0.368524 0
0.616813 0.361681 0
0.710655 0.351906 0
0.816227 0.339198 0
1 0.160313 0.0703812
1 0 0.105572
0 0.445748 0
0 0.445748 0
0 0.445748 0
0 0.445748 0
0 0.44477 0
0 0.44477 0
0 0.442815 0
0.230694 0.44086 0
0.29912 0.438905 0
0.369501 0.435973 0
0.442815 0.43304 0
0.521017 0.428152 0
0.608016 0.422287 0
0.702835 0.415445 0
0.809384 0.404692 0
1 0.277615 0.0606061
1 0 0.102639
0 0.509286 0
0 0.509286 0
0 0.509286 0
0 0.509286 0
0 0.508309 0
0 0.508309 0
0 0.507331 0
0.184751 0.504399 0
0.26784 0.503421 0
0.346041 0.501466 0
0.424242 0.498534 0
0.506354 0.495601 0
0.595308 0.490714 0
0.692082 0.483871 0
0.800587 0.475073 0
1 0.368524 0.0449658
1 0 0.0977517
0 0.581623 0
0 0.581623 0
0 0.581623 0
0 0.581623 0
0 0.581623 0
0 0.580645 0
0 0.579668 0
0.085044 0.577713 0
0.218964 0.576735 0
0.31085 0.57478 0
0.397849 0.572825 0
0.485826 0.569892 0
0.577713 0.565005 0
0.678397 0.560117 0
0.787879 0.552297 0
1 0.45259 0
1 0 0.0909091
0 0.662757 0
0 0.662757 0
0 0.662757 0
0 0.662757 0
0 0.662757 0
0 0.661779 0
0 0.660802 0
0 0.659824 0
0.117302 0.657869 0
0.257087 0.656891 0
0.358749 0.654936 0
0.455523 0.652004 0
0.554252 0.648094 0
0.658847 0.644184 0
0.772239 0.637341 0
1 0.533724 0
1 0.243402 0.0811339
0 0.754643 0
0 0.754643 0
0 0.754643 0
0 0.754643 0
0 0.754643 0
0 0.753666 0
0 0.752688 0
0 0.751711 0
0 0.750733 0
0.14956 0.749756 0
0.298143 0.747801 0
0.412512 0.745846 0
0.521017 0.742913 0
0.631476 0.739003 0
0.750733 0.734115 0
1 0.614858 0
1 0.373412 0.0664712
0 1 0
0 1 0
0 1 0
0 1 0
0 1 0
0 1 0
0 1 0
0 1 0
0 1 0
0 1 0
0 1 0
0 1 0
0 1 0
0.190616 1 0
0.393939 1 0
0.982405 0.960899 0
1 0.761486 0
0 1 0
0 1 0
0 1 0
0 1 0
0 1 0
0 1 0
0 1 0
0 1 0
0 1 0
0 1 0
0 1 0
0 1 0
0 1 0
0 1 0
0 1 0
0.487781 1 0
1 1 0
0 0 0.0703812
0.00782014 0 0.0694037
0.0410557 0 0.0674487
0.0733138 0 0.0654936
0.113392 0 0.0625611
0.155425 0 0.0625611
0.236559 0 0.0625611
0.323558 0 0.0635386
0.373412 0 0.0645161
0.430108 0 0.0654936
0.492669 0 0.0674487
0.56305 0 0.0694037
0.643206 0 0.0713587
0.733138 0 0.0742913
0.833822 0 0.0772239
1 0 0.103617
1 0 0.121212
0 0.0166178 0.0684262
0 0.0156403 0.0684262
0.0400782 0.0127077 0.0674487
0.0723363 0 0.0654936
0.112414 0 0.0625611
0.155425 0 0.0625611
0.236559 0 0.0625611
0.323558 0 0.0635386
0.373412 0 0.0645161
0.430108 0 0.0654936
0.492669 0 0.0674487
0.56305 0 0.0694037
0.643206 0 0.0713587
0.733138 0 0.0742913
0.833822 0 0.0772239
1 0 0.103617
